common/icons/svgs/a11y.svg

<svg xmlns="http://www.w3.org/2000/svg" width="24" height="24" viewBox="0 0 24 24">
  <g fill="none" fill-rule="evenodd" transform="translate(-72 -24)">
    <rect width="504" height="450" fill="#FFF"/>
    <g transform="translate(72 24)">
      <rect width="24" height="24"/>
      <g fill="#000" fill-rule="nonzero" transform="translate(3 1)">
        <path d="M12.28,16 C12.0240602,15.9295164 11.7505976,15.9636928 11.5198766,16.0949974 C11.2891555,16.2263021 11.1201124,16.4439583 11.05,16.7 C10.5302557,18.5767913 8.82891011,19.8813287 6.88153818,19.8962431 C4.93416626,19.9111575 3.2130392,18.6328319 2.66460995,16.7642214 C2.1161807,14.8956109 2.87345279,12.8898856 4.52,11.85 C4.82188943,11.6588629 4.99887635,11.3211889 4.98429149,10.9641764 C4.96970663,10.6071639 4.76576578,10.2850518 4.44929148,10.1191764 C4.13281719,9.95330103 3.75188942,9.9688629 3.45,10.16 C1.05039765,11.6848164 -0.0457174338,14.6170151 0.765224267,17.3419976 C1.57616597,20.0669802 4.09715617,21.9227458 6.94002604,21.8874276 C9.7828959,21.8521095 12.2570053,19.9342878 13,17.19 C13.1203221,16.6640519 12.8017254,16.1374824 12.28,16 Z"/>
        <path d="M17.46,18.42 L14.32,13.42 C14.1368845,13.1270145 13.8155015,12.9493086 13.47,12.95 L10.74,12.95 L11.62,10 C12.14,8.18 12,6.79 11.19,5.87 C10.4265494,5.08530622 9.33356949,4.71354436 8.25,4.87 L4.25,5.37 C4.04880161,5.39660613 3.8604609,5.4838009 3.71,5.62 L0.57,8.42 C0.192304949,8.79452644 0.173890854,9.39917963 0.528095467,9.79599532 C0.88230008,10.192811 1.48515566,10.2429081 1.9,9.91 L4.8,7.32 L7,7 L5,13.53 C4.98388596,13.6327051 4.98388596,13.7372949 5,13.84 L5,13.91 C5,14.1752165 5.10535684,14.4295704 5.29289322,14.6171068 C5.4804296,14.8046432 5.73478351,14.91 6,14.91 L12.95,14.91 L15.79,19.48 C16.0827109,19.949442 16.700558,20.0927109 17.17,19.8 C17.639442,19.5072891 17.7827109,18.889442 17.49,18.42 L17.46,18.42 Z M9.7,9.42 L8.65,12.92 L7.29,12.92 L9.1,6.92 C9.32017857,6.94955853 9.52424603,7.05159226 9.68,7.21 C10,7.52 10,8.34 9.7,9.4 L9.7,9.42 Z"/>
        <circle cx="11.41" cy="2.23" r="2.08"/>
      </g>
    </g>
  </g>
</svg>

<svg xmlns="http://www.w3.org/2000/svg" viewbox="0 0 24 24"><g class="icon__shape" fill-rule="nonzero" transform="translate(3 1)"><path d="M12.28 16a1 1 0 0 0-1.23.7 4.36 4.36 0 1 1-6.53-4.85 1 1 0 1 0-1.07-1.69A6.36 6.36 0 1 0 13 17.19a1 1 0 0 0-.72-1.19z"/><path d="M17.46 18.42l-3.14-5a1 1 0 0 0-.85-.47h-2.73l.88-2.95c.52-1.82.38-3.21-.43-4.13a3.42 3.42 0 0 0-2.94-1l-4 .5a1 1 0 0 0-.54.25L.57 8.42A1 1 0 0 0 1.9 9.91l2.9-2.59L7 7l-2 6.53a1 1 0 0 0 0 .31v.07a1 1 0 0 0 1 1h6.95l2.84 4.57a1.002 1.002 0 0 0 1.7-1.06h-.03zm-7.76-9l-1.05 3.5H7.29l1.81-6a1 1 0 0 1 .58.29c.32.31.32 1.13.02 2.19v.02z"/><circle cx="11.41" cy="2.23" r="2.08"/></g></svg>
